X:1
T: Jig wi' the Snap
C:
R:Jig
Q:180
K:Em
M:6/8
L:1/16
B,2|:E2F2E2 G4B2|e2f2g2 f4e2|d2B2d2 A4G2|F2d2B2 A2F2D2|
E4G2 F4A2|G4B2 e2B2e2|d4B2 A2G2F2|1E6 E4B,2:|2E6 E4F2|
|:G2A2G2 d2B2d2|g2f2g2 d2B2G2|A2^c2d2 G2B2d2|F2A2d2 A2F2D2|
|1G2A2G2 d2B2d2|g2f2g2 d2B2G2|A2d2B2 A2G2F2|E6E4F2:|
|2E2F2G2 F2G2A2|G2A2B2 e4c2|B2c2B2 A2G2F2|E6E4||
